icons/LinkDiagonal_filled.svg

<svg width="24" height="24" viewBox="0 0 24 24" fill="none" xmlns="http://www.w3.org/2000/svg">
<path fill-rule="evenodd" clip-rule="evenodd" d="M11.3839,7.38392c-0.4881,0.48816 -1.2796,0.48816 -1.76775,0c-0.48815,-0.48815 -0.48815,-1.27961 0,-1.76776l1.00005,-1c2.4211,-2.42116 6.3466,-2.42115 8.7677,0c2.4212,2.42115 2.4212,6.34664 0,8.76774l-1,1c-0.4881,0.4882 -1.2796,0.4882 -1.7677,0c-0.4882,-0.4881 -0.4882,-1.2796 0,-1.7677l1,-1c1.4448,-1.4449 1.4448,-3.78743 0,-5.23228c-1.4449,-1.44484 -3.7874,-1.44484 -5.2323,0zM15.8839,8.11612c0.4882,0.48815 0.4882,1.27961 0,1.76776l-5.99998,6.00002c-0.48815,0.4881 -1.27961,0.4881 -1.76776,0c-0.48816,-0.4882 -0.48816,-1.2796 0,-1.7678l6.00004,-5.99998c0.4881,-0.48816 1.2796,-0.48816 1.7677,0zM7.38392,9.61612c0.48816,0.48818 0.48816,1.27958 0,1.76778l-1,1c-1.44484,1.4448 -1.44484,3.7874 0,5.2322c1.44485,1.4449 3.78738,1.4449 5.23228,0l1,-1c0.4881,-0.4881 1.2796,-0.4881 1.7677,0c0.4882,0.4882 0.4882,1.2796 0,1.7678l-1,1c-2.4211,2.4211 -6.34659,2.4211 -8.76774,0c-2.42115,-2.4212 -2.42116,-6.3466 0,-8.7678l1,-0.99998c0.48815,-0.48816 1.27961,-0.48816 1.76776,0z" fill="#002B51"/>
</svg>

<svg width="24" height="24" viewBox="0 0 24 24" fill="none" xmlns="http://www.w3.org/2000/svg">
<path fill-rule="evenodd" clip-rule="evenodd" d="M12.3839 6.38392C13.8288 4.93908 16.1713 4.93908 17.6162 6.38392C19.061 7.82877 19.061 10.1713 17.6162 11.6162L16.6162 12.6162C16.128 13.1043 16.128 13.8958 16.6162 14.3839C17.1043 14.8721 17.8958 14.8721 18.3839 14.3839L19.3839 13.3839C21.8051 10.9628 21.8051 7.03731 19.3839 4.61616C16.9628 2.19501 13.0373 2.195 10.6162 4.61616L9.61615 5.61616C9.128 6.10431 9.128 6.89577 9.61615 7.38392C10.1043 7.87208 10.8958 7.87208 11.3839 7.38392L12.3839 6.38392ZM15.8839 8.11612C16.3721 8.60427 16.3721 9.39573 15.8839 9.88388L9.88392 15.8839C9.39577 16.372 8.60431 16.372 8.11616 15.8839C7.628 15.3957 7.628 14.6043 8.11616 14.1161L14.1162 8.11612C14.6043 7.62796 15.3958 7.62796 15.8839 8.11612ZM7.38392 9.61612C7.87208 10.1043 7.87208 10.8957 7.38392 11.3839L6.38392 12.3839C4.93908 13.8287 4.93908 16.1713 6.38392 17.6161C7.82877 19.061 10.1713 19.061 11.6162 17.6161L12.6162 16.6161C13.1043 16.128 13.8958 16.128 14.3839 16.6161C14.8721 17.1043 14.8721 17.8957 14.3839 18.3839L13.3839 19.3839C10.9628 21.805 7.03731 21.805 4.61616 19.3839C2.19501 16.9627 2.195 13.0373 4.61616 10.6161L5.61616 9.61612C6.10431 9.12796 6.89577 9.12796 7.38392 9.61612Z" fill="#002B51"/>
</svg>
